assets/icons/DiscoPigeon.svg

<?xml version="1.0" encoding="UTF-8"?>
<svg clip-rule="evenodd" fill-rule="evenodd" stroke-linejoin="round" stroke-miterlimit="2" version="1.1" viewBox="0 0 400 400" xml:space="preserve" xmlns="http://www.w3.org/2000/svg">
    <g transform="translate(-17.02 -31.921)">
        <path d="m217.02 31.921c-110.38 0-200 89.617-200 200 0 110.22 89.363 199.73 199.53 199.99 0.20713-44.61 0.55296-109.46 0.25586-116.11-2.0371 0.10532-3.7962-4.2297-4.8418-7.7715-1.2875-0.52275-3.1228-0.84659-6.0977-0.73047-4.2386 0.1599-5.2947-0.02535-7.7637-1.3633-2.8598-1.5494-6.2418-2.0099-9.6445-3.2715-1.6778-0.61858-2.6016-0.77463-6.584-1.0859-2.5482-0.19775-6.4113-0.61482-8.5879-0.92187-5.137-0.7225-6.3324-1.444-9.5801 0.0957-13.002 1.188-1.8123-0.20012-15.539 3.6894-6.3425 1.2838-12.206 4.7157-18.008 6.3828-0.79023 0.62328-2.3518 1.6145-3.4688 2.1992-1.1167 0.5852-3.2286 1.804-4.6914 2.7148-4.0559 2.5159-4.1682 2.5842-6.2324 3.7812-2.2896 1.3278-7.8178 3.7654-10.166 4.4785-2.2369 0.68144-8.1575 4.443-10.92 5.9394-3.2107 1.7408-4.5413 2.4807-6.123 3.4043-2.4212 1.4114-3.5428 1.5367-6.2656 3.2285-2.5544 1.5874-8.5544 3.878-10.605 4.0684-1.8778 0.03404-4.0035 0.06986-5.3105-1.5039-1.9365-2.362-2.1139-4.1771-0.76562-7.9199 2.5956-7.2036 3.1196-7.9751 8.2617-12.166 4.4863-3.6558 9.5236-7.8993 12.707-10.709 3.5982-3.1415 7.5641-5.9798 10.627-9.6738 0.55957-0.86363 1.4559-2.0712 1.9824-2.6855 0.70057-0.80962 0.82273-1.0827 0.45703-0.95508-0.79224 0.24389-5.0965-0.04286-6.6836 0.44336-2.2812 0.69633-3.1143-0.23844-2.916-3.3477 0.19675-3.4056 4.058-7.6876 4.4199-8.082 7.6426-8.3396 11.2-11.833 14.045-13.787 2.5628-1.766 4.5442-4.3297 9.2754-8.625 3.8692-3.5125 5.256-4.9036 6.5801-6.6055 0.56023-0.72155 2.6608-2.8467 4.6699-4.7168 11.102-10.353 7.2614-8.1151 13.803-13.158 3.3411-2.5905 6.5428-5.3304 9.6445-8.2129 3.5502-3.1311 6.2477-5.8334 9.7441-9.7559 1.1749-1.3184 8.42-8.1132 9.9863-9.3672 6.7545-5.2232 13.498-10.478 19.752-16.332 1.2947-1.2561 7.2526-5.2272 10.941-7.291 0.83781-0.46911 2.3431-1.48 3.3476-2.25 2.5257-1.9352 6.8713-4.4524 7.3242-4.9512 0.1128-0.15767 1.4647-0.97298 2.998-1.8164 4.3865-2.4186 8.6786-5.0676 13.354-6.8848 4.0977-1.505 4.9698-1.8572 7.6328-3.0898 4.2155-1.9504 8.6789-3.4309 11.121-4.6934 0.93233-0.48375 2.5853-1.3316 3.6758-1.8848 2.7085-1.3756 8.315-6.2372 9.9785-7.3711 2.0559-1.3945 8.2571-6.4801 9.9336-8.1504 2.0277-2.02 1.9963-1.9075 2.8379-9.5625 0.49128-4.472 1.2848-8.7224 2.0801-11.145 1.3949-4.6073 2.6948-9.176 5.4277-13.223 0.75278-1.4669 5.1754-6.5852 6.4531-7.4688 1.8572-1.1662 3.8681-2.026 5.8125-3.0273 2.0178-1.0309 3.0744-1.3774 5.1562-1.6973 0.88628-0.13706 3.4233-0.53337 5.6387-0.88477 4.947-0.78453 5.8138-0.80849 12.744 0.38477 6.4783 1.1156 7.8748 1.635 11.504 4.2852 7.2941 5.3282 8.3164 12.09 11.062 14.109 1.4745 1.1051 4.2585-0.33259 8.4394 4.2559 1.0231 1.1237 3.4732 3.9021 2.0273 7.2852-0.52203 1.3876 7.4191 3.746 10.473 6.7383 1.9695 1.9366 2.3725 3.6366 1.1035 4.6465-3.4244 1.6149-8.3074-1.1107-11.928-1.207-3.2438-0.71959-8.3692-0.92705-10.877-0.44532-2.036 0.39352-12.036 6.4834-14.291 11.803-0.98916 2.338-1.1772 5.0868-0.52734 7.752 0.87394 3.5804 2.65 8.2658 4.1856 11.051 2.1428 3.9826 3.2029 8.3763 4.5664 12.67 2.7179 8.385 2.9584 19.632 3.4062 22.092 0.2908 1.8878-0.52422 9.3909-1.3438 12.373-1.074 3.9022-1.5415 8.2779-2.8008 11.402-0.48687 1.1993-1.1471 3.3006-1.4688 4.6699-0.90258 3.7903-0.79251 2.4856-1.8691 6.4609-0.38553 1.4206-1.2049 3.5122-1.8438 4.707-0.63227 1.1825-1.3903 2.6926-1.6856 3.3594-0.78029 1.7846-2.1911 2.8746-3.5801 5.9297-1.3807 3.0398-4.5986 8.415-4.625 8.707-0.03657 0.60458-4.3151 6.1791-5.2734 6.8691-1.8284 1.488-3.0676 3.5167-4.6621 5.2461-1.9896 2.2694-3.6339 3.6247-7.5254 6.2051-3.1742 2.13-6.1721 4.6378-9.8828 5.7441-3.7088 1.2936-8.5172 2.9531-9.9492 3.416-5.9923 2.3051-11.697 5.2662-17.631 7.7109-10.238 4.821-10.227 4.8056-13.096 5.666-2.1905 0.6562-2.5739 0.87437-3.8164 2.168-2.2508 2.3435-2.446 2.7276-2.5781 4.625-0.03525 0.93655-0.12045 1.7799-0.43945 4.1035-0.35028 1.0813 0.38478-1.7568-0.19727 1.5234-0.26656 0.34714-0.91563 0.86096-1.4355 1.1387-0.52433 0.27547-0.94935 0.62201-0.95508 0.76758l0.40234 114.1c98.937-12.009 175.71-96.321 175.71-198.48 0-110.38-89.62-200-200-200z"/>
    </g>
</svg>

<?xml version="1.0" encoding="UTF-8" standalone="no"?>
<svg
   clip-rule="evenodd"
   fill-rule="evenodd"
   stroke-linejoin="round"
   stroke-miterlimit="2"
   version="1.1"
   viewBox="0 0 400 400"
   xml:space="preserve"
   id="svg1"
   sodipodi:docname="DiscoPigeon.svg"
   inkscape:version="1.3.2 (091e20e, 2023-11-25, custom)"
   xmlns:inkscape="http://www.inkscape.org/namespaces/inkscape"
   xmlns:sodipodi="http://sodipodi.sourceforge.net/DTD/sodipodi-0.dtd"
   xmlns="http://www.w3.org/2000/svg"
   xmlns:svg="http://www.w3.org/2000/svg"><defs
   id="defs1"><clipPath
     clipPathUnits="userSpaceOnUse"
     id="clipPath89"><circle
       style="fill:none;fill-opacity:1;stroke:#000000;stroke-width:1.3;stroke-dasharray:none;stroke-opacity:1"
       id="circle90"
       cx="64.76683"
       cy="60.897984"
       r="9.7324104"
       inkscape:label="Black ring" /></clipPath></defs><sodipodi:namedview
   id="namedview1"
   pagecolor="#ffffff"
   bordercolor="#000000"
   borderopacity="0.25"
   inkscape:showpageshadow="2"
   inkscape:pageopacity="0.0"
   inkscape:pagecheckerboard="0"
   inkscape:deskcolor="#d1d1d1"
   inkscape:zoom="0.555625"
   inkscape:cx="1290.4387"
   inkscape:cy="-296.06299"
   inkscape:window-width="3840"
   inkscape:window-height="2036"
   inkscape:window-x="-12"
   inkscape:window-y="-12"
   inkscape:window-maximized="1"
   inkscape:current-layer="svg1" />
    <g
   transform="translate(-17.02 -31.921)"
   id="g1">
        <path
   id="path1"
   d="M 217.02 31.921 C 106.63711 31.921 17.02 121.53811 17.02 231.921 C 17.02 342.14537 106.38267 431.6524 216.54734 431.90928 C 216.75447 387.29973 217.1003 322.45274 216.8032 315.796 C 214.76608 315.90132 213.00703 311.56629 211.96141 308.02452 C 210.67394 307.50177 208.83861 307.17793 205.86375 307.29405 C 201.6251 307.45395 200.56902 307.2687 198.10008 305.93077 C 195.24027 304.38141 191.85825 303.92085 188.45555 302.65928 C 186.77771 302.0407 185.854 301.88465 181.87156 301.57334 C 179.32331 301.37559 175.46027 300.95852 173.28367 300.65147 C 168.14662 299.92897 166.95131 299.20745 163.70359 300.74717 C 150.70203 301.93517 161.89132 300.54705 148.16453 304.43662 C 141.82207 305.72041 135.95895 309.15228 130.15672 310.81944 C 129.36649 311.44272 127.80491 312.4339 126.68797 313.01866 C 125.57125 313.60386 123.45938 314.82266 121.99656 315.7335 C 117.94063 318.2494 117.82839 318.31768 115.76414 319.51475 C 113.47452 320.84259 107.94634 323.28018 105.59812 323.99327 C 103.3612 324.67471 97.440572 328.43622 94.678203 329.93272 C 91.467493 331.67349 90.136939 332.41341 88.555156 333.33702 C 86.133972 334.74841 85.0124 334.87374 82.289531 336.56553 C 79.735107 338.15298 73.735092 340.44352 71.684062 340.63389 C 69.806302 340.66793 67.680579 340.70375 66.373516 339.12998 C 64.437044 336.76799 64.25963 334.95288 65.607891 331.21006 C 68.203512 324.00648 68.727495 323.23499 73.869609 319.04405 C 78.355879 315.3883 83.393248 311.14473 86.576641 308.33506 C 90.174865 305.1936 94.140752 302.35521 97.203594 298.66123 C 97.763166 297.7976 98.659489 296.59001 99.186016 295.97569 C 99.886582 295.16607 100.00875 294.89295 99.643047 295.02061 C 98.850812 295.2645 94.546523 294.97775 92.959453 295.46397 C 90.678206 296.1603 89.845164 295.22553 90.043437 292.11631 C 90.240191 288.71067 94.1014 284.42867 94.463359 284.03428 C 102.10592 275.69473 105.6635 272.20145 108.50828 270.24717 C 111.07112 268.4812 113.05247 265.91748 117.78367 261.62217 C 121.65287 258.10965 123.03972 256.71857 124.36375 255.0167 C 124.92398 254.29515 127.0245 252.16997 129.03367 250.29991 C 140.13578 239.94702 136.29503 242.18481 142.83641 237.1417 C 146.17749 234.55123 149.37917 231.81129 152.48094 228.92881 C 156.03114 225.79774 158.72863 223.09543 162.22508 219.17295 C 163.39996 217.85457 170.64505 211.05972 172.21141 209.80577 C 178.96593 204.58257 185.70939 199.32787 191.96336 193.47373 C 193.25809 192.21766 199.216 188.24651 202.90477 186.18272 C 203.74258 185.71361 205.24784 184.70269 206.25242 183.93272 C 208.77816 181.99755 213.1237 179.48031 213.57664 178.98155 C 213.68944 178.82388 215.04137 178.00857 216.57469 177.16514 C 220.96123 174.74649 225.25326 172.09759 229.9282 170.28037 C 234.02586 168.77534 234.89798 168.42321 237.56102 167.19053 C 241.77655 165.24018 246.23989 163.75963 248.68211 162.49717 C 249.61444 162.01342 251.26739 161.16559 252.35789 160.61241 C 255.0664 159.23684 260.67289 154.37522 262.33641 153.24131 C 264.39228 151.84678 270.59349 146.76121 272.27 145.09092 C 274.29768 143.07096 274.26633 143.18344 275.10789 135.52842 C 275.59917 131.05646 276.39267 126.80606 277.18797 124.38389 C 278.58287 119.77657 279.88281 115.20792 282.6157 111.16123 C 283.36848 109.69434 287.79107 104.57601 289.06883 103.69248 C 290.92601 102.52633 292.93693 101.66647 294.88133 100.66514 C 296.89909 99.634253 297.95571 99.28769 300.03758 98.967875 C 300.92386 98.830812 303.46087 98.434502 305.67625 98.083109 C 310.62329 97.298578 311.49007 97.274617 318.42039 98.467875 C 324.89865 99.583442 326.29523 100.10287 329.9243 102.75303 C 337.21841 108.08128 338.24066 114.84318 340.9868 116.86241 C 342.46127 117.96749 345.24532 116.52982 349.42625 121.11827 C 350.44934 122.24198 352.89945 125.0204 351.45359 128.40342 C 350.93156 129.79101 358.87273 132.14938 361.92625 135.1417 C 363.89577 137.07835 364.29872 138.77835 363.02977 139.78819 C 359.60536 141.4031 354.72233 138.67746 351.10203 138.58116 C 347.85828 137.86157 342.7328 137.65411 340.22508 138.13584 C 338.18905 138.52936 328.18865 144.61924 325.93406 149.93858 C 324.9449 152.27658 324.75682 155.02539 325.40672 157.69053 C 326.28066 161.27096 328.05675 165.95628 329.59227 168.74131 C 331.73505 172.72386 332.79521 177.11757 334.15867 181.41123 C 336.87656 189.79625 337.11704 201.0431 337.56492 203.50303 C 337.85572 205.39088 337.0407 212.89392 336.22117 215.87608 C 335.14719 219.77831 334.67965 224.15396 333.42039 227.27842 C 332.93352 228.47773 332.27328 230.57905 331.95164 231.94834 C 331.04906 235.73866 331.15913 234.43395 330.0825 238.40928 C 329.69697 239.82988 328.87763 241.92149 328.23875 243.11631 C 327.60648 244.29882 326.84841 245.80896 326.5532 246.47569 C 325.77291 248.26029 324.36214 249.35027 322.97312 252.40537 C 321.59246 255.4452 318.37456 260.82036 318.34812 261.11241 C 318.31155 261.71699 314.03301 267.29153 313.07469 267.98155 C 311.24632 269.46951 310.00714 271.49822 308.41258 273.22764 C 306.42301 275.49709 304.77864 276.85236 300.88719 279.43272 C 297.713 281.56273 294.71511 284.0705 291.00437 285.17686 C 287.29556 286.4705 282.48713 288.12995 281.05516 288.59287 C 275.06287 290.89794 269.35823 293.85904 263.4243 296.30381 C 253.18677 301.12477 253.19739 301.10937 250.32859 301.96983 C 248.13811 302.62603 247.7547 302.8442 246.51219 304.1378 C 244.26134 306.48127 244.06624 306.86541 243.93406 308.7628 C 243.89881 309.69935 243.81361 310.54273 243.49461 312.86631 C 243.14433 313.94759 243.87939 311.10952 243.29734 314.38975 C 243.03078 314.73689 242.38171 315.25071 241.8618 315.52842 C 241.33747 315.80389 240.91245 316.15043 240.90672 316.296 L 241.30906 430.39756 C 340.24627 418.3886 417.02 334.0769 417.02 231.921 C 417.02 121.53811 327.39989 31.921 217.02 31.921 z " />
    </g>
</svg>
